X: 36718
T: Sheep In The Boat, The
R: jig
M: 6/8
K: Edorian
|:B,EF GFE|~F3 def|edB BAF|AFE FED|
B,EF ~G3|~F3 def|edB BAF|AFE E3:|
B2 e ede|~f3 d2 f|edB BAF|AFE E3|
Bed e^de|f2f def|edB BAF|AFE E3|
~B3 ~e3|~f3 Adf|edB BAF|AFE FED|
B,EF ~G3|~F3 ~D3|edB BAF|AFE E3|

